X: 4079
T: Blind Rhinoceros
R: hornpipe
M: 4/4
K: Bminor
"Bm" f2 Bd fBdf|gfed "F#m" c2 d2|"A" e2 de eABc|"F#m"Bcde "A"fgfe|
"Bm"d2 Bd fBdf|gfed "F#m"c2 d2|"A"e2 de eABc|"D"ce"A"dc "Bm" B4:|
"Bm"f2 Bf fBdB|fBdB fBdB|"Em"g2 gf egce|"F#m"ABcd "A"e2 (3efg|
"Bm"f2- fe dfBf|fBdB fBdB|"A"e2 de eABc|"D"ce"A"dc "Bm" B4:|

